!!!!SEGMENT: pl-gd--ee-1638--005-017_marenzio-luca--il-primo-libro-de-madrigali-spirituali-a-cinque-voci-se-s-acquettasse.krn
!!!cenid: 15xx:970
!!!COM: Marenzio, Luca
!!!COM-rismID:
!!!CDT: ~1553-1599/08/22
!!!CNT: Italian
!!!GTL: Il Primo libro de madrigali spirituali a cinque voci
!!!OTL: Se s’acquettasse
!!!OMV: 017
!!!OMD:
!!!OMD-mod: Terza parte
!!!PDT: 1588
!!!AGN:
!!!SMS-siglum: PL-GD
!!!SMS-shelfmark: Ee 1638
!!!SMS-shelfwork: 005-017 G
!!!SMS-variant:
!!!SMS-altvar:
!!!NIFC-rismSourceID: 990039269
!!!NIFC-islandoraID: pl-gd:57883
!!!URL-pdf-islandora: https://repozytorium.nifc.pl/islandora/object/pl-gd%3A57883/datastream/PDF/view
!!!URL-scan: https://polish.musicsources.pl/pl/lokalizacje/galeria/klocki-introligatorskie/655 @EN{Scan on Polish Music Herritage in Open Access Website} @PL{Skany w portalu Dziedzictwo Muzyki Polskiej w otwartym dostępie}
!!!ONB-nifc: UWAGA: zbiór na stronach: Canto: s. 666-677, Alto: s. 514-525, Tenore: s. 362-373, Bassus: s. 210-221, Quinto: s. 58-69. Uwaga: utwory podzieloNè wg tytułów w spisach treści dostępnych na końcu każdej księgi głosowej.
!!!AIN: 1 alto 1 bass  1 soprn 1 tenor  1 vox
!!!key: F
**kern	**text	**mod-text	**kern	**text	**mod-text	**kern	**text	**mod-text	**kern	**text	**mod-text	**kern	**text	**mod-text
*part5	*part5	*part5	*part4	*part4	*part4	*part3	*part3	*part3	*part2	*part2	*part2	*part1	*part1	*part1
*staff5	*staff5	*staff5	*staff4	*staff4	*staff4	*staff3	*staff3	*staff3	*staff2	*staff2	*staff2	*staff1	*staff1	*staff1
*I"QVINTO	*	*	*I"BASSO	*	*	*I"TENORE	*	*	*I"ALTO	*	*	*I"CANTO	*	*
*mI"Quinto	*	*	*mI"Basso	*	*	*mI"Tenore	*	*	*mI"Alto	*	*	*mI"Soprano	*	*
*I'V 5	*	*	*I'B	*	*	*I'T	*	*	*I'A	*	*	*I'S	*	*
*ICvox	*	*	*ICvox	*	*	*ICvox	*	*	*ICvox	*	*	*ICvox	*	*
*Ivox	*	*	*Ibass 	*	*	*Itenor 	*	*	*Ialto	*	*	*Isoprn	*	*
*clefC3	*	*	*clefC4	*	*	*clefC3	*	*	*clefC2	*	*	*clefG2	*	*
*mclefGv2	*	*	*mclefF4	*	*	*mclefGv2	*	*	*mclefG2	*	*	*	*	*
*k[b-]	*	*	*k[b-]	*	*	*k[b-]	*	*	*k[b-]	*	*	*k[b-]	*	*
*F:	*	*	*F:	*	*	*F:	*	*	*F:	*	*	*F:	*	*
*M2/1	*	*	*M2/1	*	*	*M2/1	*	*	*M2/1	*	*	*M2/1	*	*
*met(C)	*	*	*met(C)	*	*	*met(C)	*	*	*met(C)	*	*	*met(C)	*	*
=1-	=1-	=1-	=1-	=1-	=1-	=1-	=1-	=1-	=1-	=1-	=1-	=1-	=1-	=1-
!	!	!	!LO:TX:a:t=Terza Parte:mod=	!	!	!LO:TX:a:t=Terza Parte:mod=	!	!	!LO:TX:t=P:problem:podwójnie zapisany znak przykluczowy: B- b-	!	!	!LO:TX:a:t=Terza Parte:mod=	!	!
!LO:TX:a:t=Terza Parte:mod=	!	!	!	!	!	!	!	!	!LO:TX:a:t=Terza Parte:mod=	!	!	!	!	!
1e	SE	Se	00r	.	.	1c	SE	Se	1g	SE	Se	1cc	SE	Se
1e	s'ac-	s'ac-	.	.	.	1A	s'ac-	s'ac-	1a	s'ac-	s'ac-	1cc#X	s'ac-	s'ac-
=2-	=2-	=2-	=2-	=2-	=2-	=2-	=2-	=2-	=2-	=2-	=2-	=2-	=2-	=2-
2e\	-quet-	-que-	.	.	.	2A/	-quet-	-que-	2a\	-quet-	-que-	2cc#yX\	-quet-	-que-
1f	-taſ-	-tas-	.	.	.	1d	-taſ-	-tas-	1a	-taſ-	-tas-	1dd	-taſ-	-tas-
2g\	-ſe	-se	.	.	.	2c/	-ſe	-se	2cc\	-ſe	-se	2ee\	-ſe	-se
=3-	=3-	=3-	=3-	=3-	=3-	=3-	=3-	=3-	=3-	=3-	=3-	=3-	=3-	=3-
2a\	l'a-	l'a-	0r	.	.	2f\	l'a-	l'a-	2cc\	l'a-	l'a-	2ff\	l'a-	l'a-
4g\	-mo-	-mo-	.	.	.	4c/	-mo-	-mo-	4cc\	-mo-	-mo-	4ee\	-mo-	-mo-
2f\	-ro-	-ro-	.	.	.	2d\	-ro-	-ro-	2a\	-ro-	-ro-	2dd\	-ro-	-ro-
4f\	-ſa	-sa	.	.	.	4B-/	-ſa	-sa	4b-\	-ſa	-sa	4dd\	-ſa	-sa
2e\	piog-	piog-	.	.	.	2c/	piog-	piog-	2g\	piog-	piog-	2ccny\	piog-	piog-
=4-	=4-	=4-	=4-	=4-	=4-	=4-	=4-	=4-	=4-	=4-	=4-	=4-	=4-	=4-
1f	-gia	-gia	2r	.	.	0F	-gia	-gia	2a\	-gia	-gia	1cc	-gia	-gia
.	.	.	2.F/	Et	Et	.	.	.	2.cc\	Et	Et	.	.	.
1r	.	.	.	.	.	.	.	.	.	.	.	2r	.	.
.	.	.	4G/	ha-	ha-	.	.	.	4b-\	ba-	ha-	.	.	.
.	.	.	2A/	-ueſ-	-ves-	.	.	.	1a\	-ueſ-	-ves-	2.cc\	Et	Et
=5-	=5-	=5-	=5-	=5-	=5-	=5-	=5-	=5-	=5-	=5-	=5-	=5-	=5-	=5-
2.c/	Et	Et	2F/	-si vn	-si un	2r	.	.	.	.	.	.	.	.
!	!	!	!	!	!	!	!	!	!	!	!	!LO:SIC:v:t=custos ee	!	!
.	.	.	.	.	.	.	.	.	.	.	.	4dd\	ba-	ha-
!	!	!	!	!	!	!	!	!	!LO:SIC:v:t=custos c	!	!	!LO:LB:g=original	!	!
.	.	.	2c\	ſol	sol-	2.c/	Et	Et	2g\	-si	-si,	2ee\	-ueſ-	-ves-
4d\	ha-	ha-	.	.	.	.	.	.	.	.	.	.	.	.
!LO:SIC:v:t=custos c	!	!	!	!	!	!	!	!	!	!	!	!	!	!
2e\	-ueſ-	-ves-	2A/	di	-di,	.	.	.	2.c/	Et	et	2cc\	-si vn	-si un
.	.	.	.	.	.	4d\	ba-	ha-	.	.	.	.	.	.
!LO:LB:g=original	!	!	!	!	!	!LO:SIC:v:t=custos c	!	!	!	!	!	!	!	!
2c/	-si vn	-si un	2r	.	.	2e\	-ueſ-	-ves-	.	.	.	2gg\	ſol-	sol-
.	.	.	.	.	.	.	.	.	4d/	ba-	ha-	.	.	.
=6-	=6-	=6-	=6-	=6-	=6-	=6-	=6-	=6-	=6-	=6-	=6-	=6-	=6-	=6-
*	*	*	*	*ij	*ij	*	*	*	*	*	*	*	*	*
2g\	ſol	sol-	2.C/	Et	et	2c/	-ſi vn	-si un	2e/	-ueſ-	-ves-	0ee	-di	-di
2e\	di	-di	.	.	.	2g\	ſol	sol-	2c/	-si vn	-si un	.	.	.
!	!	!	!LO:SIC:v:t=custos E	!	!	!	!	!	!	!	!	!	!	!
.	.	.	4D/	ha-	ha-	.	.	.	.	.	.	.	.	.
!	!	!	!LO:LB:g=original	!	!	!	!	!	!	!	!	!	!	!
0r	.	.	2E/	-ves-	-ves-	1e	di	-di	2g\	ſol	sol-	.	.	.
.	.	.	2C/	-si un	-si un	.	.	.	1e\	di	-di	.	.	.
=7-	=7-	=7-	=7-	=7-	=7-	=7-	=7-	=7-	=7-	=7-	=7-	=7-	=7-	=7-
.	.	.	2c\	sol	sol-	1r	.	.	.	.	.	1cc	quic-	di
.	.	.	2A/	di	-di	.	.	.	2.f\	di	di	.	.	.
*	*	*	*	*Xij	*Xij	*	*	*	*	*	*	*	*	*
1f	di	di	1B-	di	di	1d	di	di	.	.	.	1dd	-te	quie-
.	.	.	.	.	.	.	.	.	4e/	.	.	.	.	.
.	.	.	.	.	.	.	.	.	2d/	.	.	.	.	.
=8-	=8-	=8-	=8-	=8-	=8-	=8-	=8-	=8-	=8-	=8-	=8-	=8-	=8-	=8-
1.e-X	quie-	quie-	1.E-X	quic-	quie-	1G	quie-	quie-	1.g	quie-	quie-	0b-	vi-	-te
.	.	.	.	.	.	1G	-te	-te	.	.	.	.	.	.
2d\	-te	-te	2G/	-te	-te	.	.	.	2g\	-te	-te	.	.	.
=9-	=9-	=9-	=9-	=9-	=9-	=9-	=9-	=9-	=9-	=9-	=9-	=9-	=9-	=9-
1d	vi-	vi-	1D	vi-	vi-	1A	vi-	vi-	1f#X	vi-	vi-	1a	-ta	vi-
1d	-ta	-ta,	1D	-ta	-ta,	1A	-ta	-ta,	1f#	-ta	-ta,	1a	.	-ta,
=10-	=10-	=10-	=10-	=10-	=10-	=10-	=10-	=10-	=10-	=10-	=10-	=10-	=10-	=10-
2g\	Io	Io	00r	.	.	1r	.	.	1r	.	.	4r	.	.
.	.	.	.	.	.	.	.	.	.	.	.	4g/	Io	Io
4g\	ſpe-	spe-	.	.	.	.	.	.	.	.	.	4b-/	ſpe-	spe-
4f#X\	-re-	-re-	.	.	.	.	.	.	.	.	.	4a/	-re-	-re-
4g\	-rei	-rei	.	.	.	2g\	Io	Io	4r	.	.	4b-/	-rei	-rei
4eny\	an-	an-	.	.	.	.	.	.	4g\	Io	Io	4cc\	an-	an-
2d\	-cor	-cor	.	.	.	4g\	ſpe-	spe-	4b-\	ſpe-	spe-	4dd\	-cor	-cor
.	.	.	.	.	.	4f#X\	-re-	-re-	4a\	-re-	-re-	4.dd\	con	con
=11-	=11-	=11-	=11-	=11-	=11-	=11-	=11-	=11-	=11-	=11-	=11-	=11-	=11-	=11-
2r	.	.	.	.	.	4g\	-rei	-rei	4b-\	-rei	-rei	.	.	.
.	.	.	.	.	.	.	.	.	.	.	.	8dd\	mi-	mi-
!	!	!	!	!	!	!	!	!	!	!	!	!LO:SIC:v:t=custos ff	!	!
.	.	.	.	.	.	4e\	an-	an-	4cc\	an-	an-	4ee\	-glior	-glior
!	!	!	!	!	!	!	!	!	!LO:SIC:v:t=custos a	!	!	!LO:LB:g=original	!	!
4r	.	.	.	.	.	2d\	-cor	-cor	4dd\	-cor	-cor	8ff\	ven-	ven-
.	.	.	.	.	.	.	.	.	.	.	.	8ee\	.	.
4.d\	con	con	.	.	.	.	.	.	4.a\	con	con	8dd\	.	.
.	.	.	.	.	.	.	.	.	.	.	.	8cc\	.	.
.	.	.	.	.	.	2r	.	.	.	.	.	2b-\	.	.
8d\	mi-	mi-	.	.	.	.	.	.	8a\	mi-	mi-	.	.	.
!LO:SIC:v:t=custos f	!	!	!	!	!	!	!	!	!	!	!	!	!	!
4e\	-glior	-glior	.	.	.	.	.	.	4g\	-glior	-glior	.	.	.
!LO:LB:g=original	!	!	!	!	!	!	!	!	!	!	!	!	!	!
8fny\	ven-	ven-	.	.	.	4r	.	.	8a\	ven-	ven-	2a/	-to	-to,
8e\	.	.	.	.	.	.	.	.	8g\	.	.	.	.	.
8d\	.	.	.	.	.	4.fny\	con	con	8fny\	.	.	.	.	.
8c/	.	.	.	.	.	.	.	.	8e\	.	.	.	.	.
=12-	=12-	=12-	=12-	=12-	=12-	=12-	=12-	=12-	=12-	=12-	=12-	=12-	=12-	=12-
2B-/	.	.	2r	.	.	.	.	.	2d/	.	.	0r	.	.
.	.	.	.	.	.	8f\	mi-	mi-	.	.	.	.	.	.
!	!	!	!	!	!	!LO:SIC:v:t=custos a	!	!	!	!	!	!	!	!
.	.	.	.	.	.	4g\	-glior	-glior	.	.	.	.	.	.
2A/	-to	-to,	4r	.	.	8a\	ven-	ven-	2c/	-to	-to,	.	.	.
.	.	.	.	.	.	8g\	.	.	.	.	.	.	.	.
.	.	.	4F/	In	In	8f\	.	.	.	.	.	.	.	.
.	.	.	.	.	.	8e\	.	.	.	.	.	.	.	.
2r	.	.	2G/	por-	por-	2d\	.	.	2r	.	.	.	.	.
4r	.	.	2A/	-to	-to	2c/	-to	-to,	2a\	In	In	.	.	.
4c/	In	In	.	.	.	.	.	.	.	.	.	.	.	.
=13-	=13-	=13-	=13-	=13-	=13-	=13-	=13-	=13-	=13-	=13-	=13-	=13-	=13-	=13-
2d\	por-	por-	4.B-\	ter-	ter-	0r	.	.	2f\	por-	por-	1r	.	.
.	.	.	8A/	-mi-	-mi-	.	.	.	.	.	.	.	.	.
2e\	-to	-to	4G/	-nar	-nar	.	.	.	2g\	-to	-to	.	.	.
.	.	.	4c\	queſ-	que-	.	.	.	.	.	.	.	.	.
4.f\	ter-	ter-	4A/	-to	-sto	.	.	.	4.a\	ter-	ter-	2cc\	In	In
.	.	.	4F/	mio	mio	.	.	.	.	.	.	.	.	.
8e\	-mi-	-mi-	.	.	.	.	.	.	8g\	-mi-	-mi-	.	.	.
!	!	!	!LO:SIC:v:t=custos c	!	!	!	!	!	!	!	!	!	!	!
4d\	-nar	-nar	2B-\	cor-	cor-	.	.	.	4f\	-nar	-nar	2dd\	por-	por-
4g\	queſ-	que-	.	.	.	.	.	.	4b-\	queſ-	que-	.	.	.
!	!	!	!LO:LB:g=original	!	!	!	!	!	!	!	!	!	!	!
=14-	=14-	=14-	=14-	=14-	=14-	=14-	=14-	=14-	=14-	=14-	=14-	=14-	=14-	=14-
4e\	-to	-sto	2c\	-ſo	-so,	4r	.	.	4g\	-to	-sto	2ee\	-to	-to
4c/	mio	mio	.	.	.	4c/	queſ-	que-	4g\	mio	mio	.	.	.
2f\	cor-	cor-	2r	.	.	4A/	-to	-sto	2a\	cor-	cor-	4.ff\	ter-	ter-
.	.	.	.	.	.	4F/	mio	mio	.	.	.	.	.	.
.	.	.	.	.	.	.	.	.	.	.	.	8ee\	-mi-	-mi-
!	!	!	!	!	!	!	!	!	!LO:SIC:v:t=custos c	!	!	!	!	!
2g\	-ſo	-so,	4r	.	.	2B-/	cor-	cor-	2d/	-ſo	-so,	4dd\	-nar	-nar
.	.	.	4G/	queſ-	que-	.	.	.	.	.	.	4gg\	queſ-	que-
2r	.	.	4c\	-to	-sto	8c\	-ſo	-so.	4r	.	.	4ee\	-to	-sto
.	.	.	.	.	.	8d\	.	.	.	.	.	.	.	.
*	*	*	*	*	*	*	*	*	*	*ij	*ij	*	*	*
.	.	.	4A/	mio	mio	8e\	.	.	4c/	In	in	4cc\	mio	mio
.	.	.	.	.	.	8f\	.	.	.	.	.	.	.	.
=15-	=15-	=15-	=15-	=15-	=15-	=15-	=15-	=15-	=15-	=15-	=15-	=15-	=15-	=15-
!	!	!	!	!	!	!	!	!	!	!	!	!LO:MO:mod=!null:null	!	!
!	!	!	!	!	!	!	!	!	!	!	!	!LO:N:acc=#	!	!
2r	.	.	2G/	cor-	cor-	1g	.	.	2d/	por-	por-	2bn/	cor-	cor-
4r	.	.	2c\	-ſo	-so.	.	.	.	2e/	-to	-to	4cc\	-ſo	-so,
!LO:SIC:v:t=custos A	!	!	!	!	!	!	!	!	!	!	!	!	!	!
4c/	que-	que-	.	.	.	.	.	.	.	.	.	4g/	queſ-	que-
!LO:LB:g=original	!	!	!	!	!	!	!	!	!	!	!	!	!	!
4A/	-ſto	-sto	0r	.	.	1r	.	.	4.f\	ter-	ter-	8a/	-to	-sto
.	.	.	.	.	.	.	.	.	.	.	.	8b\	.	.
4F/	mio	mio	.	.	.	.	.	.	.	.	.	8cc\	.	.
!	!	!	!	!	!	!	!	!	!	!	!	!LO:SIC:v:t=custos b	!	!
.	.	.	.	.	.	.	.	.	8e/	-mi-	-mi-	8a/	.	.
!	!	!	!	!	!	!	!	!	!	!	!	!LO:LB:g=original	!	!
!LO:SIC:s=2B/:v	!	!	!	!	!	!	!	!	!	!	!	!	!	!
2B-/	cor-	cor-	.	.	.	.	.	.	4d/	-nar	-nar	4.b/	.	.
.	.	.	.	.	.	.	.	.	4g\	ques-	que-	.	.	.
.	.	.	.	.	.	.	.	.	.	.	.	8a/	.	.
=16-	=16-	=16-	=16-	=16-	=16-	=16-	=16-	=16-	=16-	=16-	=16-	=16-	=16-	=16-
1c	-ſo	-so.	.	.	.	2r	.	.	4e/	-to	-sto	4g/	.	.
.	.	.	.	.	.	.	.	.	2f\	mio	mio	4f/	mio	mio
.	.	.	.	.	.	1c	Nè	Nè	.	.	.	2g/	cor-	cor-
.	.	.	.	.	.	.	.	.	4e/	cor-	cor-	.	.	.
2r	.	.	1.F	Nè	Nè	.	.	.	1f	-so	-so.	1a	-ſo	-so.
2c/	Nè	Nè	.	.	.	2A/	da	da	.	.	.	.	.	.
*	*	*	*	*	*	*	*	*	*	*Xij	*Xij	*	*	*
=17-	=17-	=17-	=17-	=17-	=17-	=17-	=17-	=17-	=17-	=17-	=17-	=17-	=17-	=17-
2A/	da	da	.	.	.	2.a\	lun-	lun-	2r	.	.	2cc\	Nè	Nè
2.a\	lun-	lun-	2D/	da	da	.	.	.	1f	Nè	Nè	2f/	da	da
.	.	.	.	.	.	4g\	.	.	.	.	.	.	.	.
.	.	.	2.d\	lung-	lun-	4f\	.	.	.	.	.	1ff	lun-	lun-
!	!	!	!	!	!	!LO:SIC:v:t=custos d	!	!	!	!	!	!	!	!
4g\	.	.	.	.	.	4e\	.	.	.	.	.	.	.	.
4f\	.	.	.	.	.	4d\	.	.	2a\	da	da	.	.	.
4e\	.	.	4e\	.	.	4c/	.	.	.	.	.	.	.	.
=18-	=18-	=18-	=18-	=18-	=18-	=18-	=18-	=18-	=18-	=18-	=18-	=18-	=18-	=18-
2d\	.	.	2f\	.	.	2B-/	.	.	2b-\	lun-	lun-	1ff	-ge	-ge
2f\	-ge	-ge	2F/	-ge	-ge	2c/	-ge	-ge	2a\	-ge	-ge	.	.	.
2f\	ve-	ve-	2B-\	ve-	ve-	2d\	ve-	ve-	2b-\	ve-	ve-	2dd\	ve-	ve-
2g\	-den-	-den-	2G/	-den-	-den-	2B-/	-den-	-den-	2b-\	-den-	-den-	2dd\	-den-	-den-
=19-	=19-	=19-	=19-	=19-	=19-	=19-	=19-	=19-	=19-	=19-	=19-	=19-	=19-	=19-
!	!	!	!	!	!	!	!	!	!LO:SIC:v:t=custos a	!	!	!	!	!
2f\	-do il	-do il	2D/	-do il	-do il	2d\	-do il	-do il	2a\	-do il	-do il	2dd\	-do il	-do il
1e	fol-	fol-	1A	fol-	fol-	1c#X	fol-	fol-	1a	fol-	fol-	2ee\	fol-	fol-
.	.	.	.	.	.	.	.	.	.	.	.	2a/	-to	-to
2f\	-to	-to	2D/	-to	-to	2d\	-to	-to	2a\	-to	-to	2.dd\	bo-	bo-
=20-	=20-	=20-	=20-	=20-	=20-	=20-	=20-	=20-	=20-	=20-	=20-	=20-	=20-	=20-
*lig	*	*	*	*	*	*	*	*	*	*	*	*	*	*
1e	be-	bo-	2.Eny/	bo-	bo-	0G	boſ-	bo-	0g	boſ-	bo-	.	.	.
.	.	.	.	.	.	.	.	.	.	.	.	4cc\	.	.
.	.	.	.	.	.	.	.	.	.	.	.	2.cc\	.	.
!	!	!	!LO:SIC:v:t=custos G	!	!	!	!	!	!	!	!	!	!	!
.	.	.	4F/	.	.	.	.	.	.	.	.	.	.	.
!LO:SIC:v:t=custos e	!	!	!LO:LB:g=original	!	!	!	!	!	!	!	!	!	!	!
1d	.	.	1G	.	.	.	.	.	.	.	.	.	.	.
!	!	!	!	!	!	!	!	!	!	!	!	!LO:MO:mod=!null:null	!	!
!	!	!	!	!	!	!	!	!	!	!	!	!LO:N:acc=#	!	!
.	.	.	.	.	.	.	.	.	.	.	.	8bn\	.	.
!	!	!	!	!	!	!	!	!	!	!	!	!LO:SIC:v:t=custos bn	!	!
.	.	.	.	.	.	.	.	.	.	.	.	8a/	.	.
!	!	!	!	!	!	!	!	!	!	!	!	!LO:LB:g=original	!	!
!	!	!	!	!	!	!	!	!	!	!	!	!LO:MO:mod=!null:null	!	!
!	!	!	!	!	!	!	!	!	!	!	!	!LO:N:acc=#	!	!
!	!	!	!	!	!	!	!	!	!	!	!	!LO:SIC:s=2bny/:v	!	!
.	.	.	.	.	.	.	.	.	.	.	.	2bn/	.	.
!LO:LB:g=original	!	!	!	!	!	!	!	!	!	!	!	!	!	!
*Xlig	*	*	*	*	*	*	*	*	*	*	*	*	*	*
=21-	=21-	=21-	=21-	=21-	=21-	=21-	=21-	=21-	=21-	=21-	=21-	=21-	=21-	=21-
1e	-ſco	-sco,	1C	-ſcho	-sco,	2G/	-co	-sco,	2g\	-co	-sco,	4cc\	-ſco	-sco,
.	.	.	.	.	.	.	.	.	.	.	.	2g/	Po-	Po-
.	.	.	.	.	.	2cny/	Po-	Po-	4r	.	.	.	.	.
.	.	.	.	.	.	.	.	.	4e/	Po-	Po-	2a/	-trei	-trei
1r	.	.	1r	.	.	2d\	-trei	-trei	2f\	-trei	-trei	.	.	.
!	!	!	!	!	!	!	!	!	!	!	!	!LO:MO:mod=!null:null	!	!
!	!	!	!	!	!	!	!	!	!	!	!	!LO:N:acc=#	!	!
.	.	.	.	.	.	.	.	.	.	.	.	4bn/	te-	te-
.	.	.	.	.	.	4e\	te-	te-	4g\	te-	te-	2cc\	-mer	-mer
.	.	.	.	.	.	2f\	-mer	-mer	2a\	-mer	-mer	.	.	.
=22-	=22-	=22-	=22-	=22-	=22-	=22-	=22-	=22-	=22-	=22-	=22-	=22-	=22-	=22-
0r	.	.	0r	.	.	.	.	.	.	.	.	2dd\	d'a-	d'A-
.	.	.	.	.	.	4g\	d'a-	d'A-	4b-\	d'a-	d'A-	.	.	.
.	.	.	.	.	.	4c/	-mor	-mor,	4g\	-mor	-mor,	4ee\	-mor	-mor,
.	.	.	.	.	.	4f\	nè	nè	4a\	nè	nè	4cc\	nè	nè
.	.	.	.	.	.	4f\	di	di	8a\	di	di	4dd\	di	di
.	.	.	.	.	.	.	.	.	8b-\	ſuo	suo	.	.	.
!	!	!	!	!	!	!LO:SIC:v:t=custos d	!	!	!	!	!	!	!	!
.	.	.	.	.	.	4e\	ſuo	suo	2cc\	ſtra-	stra-	4ee\	ſuo	suo
.	.	.	.	.	.	2d\	ſtra-	stra-	.	.	.	2ff\	ſtra-	stra-
!	!	!	!	!	!	!	!	!	!LO:MO:mod=!null:null	!	!	!	!	!
!	!	!	!	!	!	!	!	!	!LO:N:acc=#	!	!	!	!	!
.	.	.	.	.	.	.	.	.	4bn\	.	.	.	.	.
=23-	=23-	=23-	=23-	=23-	=23-	=23-	=23-	=23-	=23-	=23-	=23-	=23-	=23-	=23-
1r	.	.	2r	.	.	8c\	-le	-le,	2cc\	-le	-le,	2ee\	-le	-le,
.	.	.	.	.	.	8d\	.	.	.	.	.	.	.	.
.	.	.	.	.	.	8e\	.	.	.	.	.	.	.	.
.	.	.	.	.	.	8f\	.	.	.	.	.	.	.	.
.	.	.	2c\	Po-	Po-	2g\	.	.	4r	.	.	4r	.	.
.	.	.	.	.	.	.	.	.	4c/	Po-	po-	4ee\	Po-	po-
!	!	!	!	!	!	!	!	!	!LO:SIC:v:t=custos e	!	!	!	!	!
2r	.	.	2B-\	-trei	-trei	1r	.	.	2d/	-trei	-trei	2ff\	-trei	-trei
4r	.	.	4A/	te-	te-	.	.	.	4e/	te-	te-	4cc\	te-	te-
!	!	!	!	!	!	!	!	!	!	!	!	!LO:SIC:v:t=custos ff	!	!
4b-\	Nè	nè	2G/	-mer	-mer	.	.	.	2g\	-mer	-mer	2dd\	-mer	-mer
!	!	!	!	!	!	!	!	!	!	!	!	!LO:LB:g=original	!	!
=24-	=24-	=24-	=24-	=24-	=24-	=24-	=24-	=24-	=24-	=24-	=24-	=24-	=24-	=24-
4b-\	di	di	.	.	.	4r	.	.	.	.	.	.	.	.
4a\	ſuo	suo	4F/	d'a-	d'A-	4f\	nè	nè	4cc\	d'a-	d'A-	4ff\	d'a-	d'A-
2.g\	ſtra-	stra-	2c\	-mor	-mor,	4f\	di	di	2cc\	-mor	-mor,	1gg	-mor	-mor,
.	.	.	.	.	.	4e\	ſuo	suo	.	.	.	.	.	.
.	.	.	2G/	nè	nè	2.d\	ſtra-	stra-	4r	.	.	.	.	.
4d\	-le	-le,	.	.	.	.	.	.	4b-y\	nè	nè	.	.	.
2r	.	.	4G/	di	di	.	.	.	4b-\	di	di	4r	.	.
.	.	.	4A/	ſuo	suo	4c/	-le	-le,	4a\	ſuo	suo	4ff\	nè	nè
=25-	=25-	=25-	=25-	=25-	=25-	=25-	=25-	=25-	=25-	=25-	=25-	=25-	=25-	=25-
2b-\	nè	nè	1B-	ſtra-	stra-	2r	.	.	2g\	ſtra-	stra-	4ff\	di	di
.	.	.	.	.	.	.	.	.	.	.	.	4ee\	ſuo	suo
*	*	*	*	*	*	*	*ij	*ij	*	*	*	*	*	*
4b-\	di	di	.	.	.	2b-\	nè	nè	4f\	-le	-le,	2dd\	ſtra-	stra-
*	*	*	*	*	*	*	*	*	*	*ij	*ij	*	*	*
4a\	ſuo	suo	.	.	.	.	.	.	4d/	nè	nè	.	.	.
4g\	ſtra-	stra-	1c	-le	-le,	4b-\	di	di	4e/	di	di	1cc	-le	-le,
2f\	.	.	.	.	.	4a\	suo	suo	4f\	suo	suo	.	.	.
.	.	.	.	.	.	2g\	stra-	stra-	2g\	stra-	stra-	.	.	.
4e\	.	.	.	.	.	.	.	.	.	.	.	.	.	.
=26-	=26-	=26-	=26-	=26-	=26-	=26-	=26-	=26-	=26-	=26-	=26-	=26-	=26-	=26-
*	*	*	*	*ij	*ij	*	*	*	*	*	*	*	*	*
4f\	-le	-le,	2F/	nè	nè	4f\	-le	-le,	2a\	-le	-le,	4r	.	.
*	*ij	*ij	*	*	*	*	*	*	*	*	*	*	*ij	*ij
4c/	nè	nè	.	.	.	4F/	nè	nè	.	.	.	4cc\	nè	nè
4F/	di	di	4F/	di	di	8A/	di	di	4r	.	.	4dd\	di	di
.	.	.	.	.	.	8B-/	suo	suo	.	.	.	.	.	.
4G/	suo	suo	4E/	suo	suo	2c/	stra-	stra-	4g\	nè	nè	4ee\	suo	suo
1d	stra-	stra-	1D	stra-	stra-	.	.	.	4f\	di	di	1ff	stra-	stra-
!	!	!	!	!	!	!LO:MO:mod=!null:null	!	!	!	!	!	!	!	!
!	!	!	!	!	!	!LO:N:acc=#	!	!	!	!	!	!	!	!
.	.	.	.	.	.	8Bn/	.	.	4f\	suo	suo	.	.	.
.	.	.	.	.	.	8A/	.	.	.	.	.	.	.	.
!	!	!	!	!	!	!LO:MO:mod=!null:null	!	!	!	!	!	!	!	!
!	!	!	!	!	!	!LO:N:acc=#	!	!	!	!	!	!	!	!
!	!	!	!	!	!	!LO:SIC:s=2Bny/:v	!	!	!	!	!	!	!	!
.	.	.	.	.	.	2Bn/	.	.	2d/	stra-	stra-	.	.	.
=27-	=27-	=27-	=27-	=27-	=27-	=27-	=27-	=27-	=27-	=27-	=27-	=27-	=27-	=27-
00G	-le	-le.	00C	-le	-le.	00c	-le	-le.	00e	-le	-le.	00ee	-le	-le.
=28-	=28-	=28-	=28-	=28-	=28-	=28-	=28-	=28-	=28-	=28-	=28-	=28-	=28-	=28-
.	.	.	.	.	.	.	.	.	.	.	.	.	.	.
==	==	==	==	==	==	==	==	==	==	==	==	==	==	==
*-	*-	*-	*-	*-	*-	*-	*-	*-	*-	*-	*-	*-	*-	*-
!!!system-decoration: [(s1,s2,s3,s4,s5)]
!!!filter-modern: tie -s | humtr -p | sic -sq | shed -e "s/LO:DY:(a|b|rj)/LO:dy:$1/L" | shed -e "s/TX(.*):t=P:/tx$1:t=P:/LG" | modori -m | autostem -r | shed -e "s/yy//" | shed -k -e "s/\(y([^y])/($1/" | shed -e "s/-//B" | shed -e "s/^(\d+[\/\\]right)/$1yy/I; s/^(\d+[\/\\]left)/$1yy/I" | shed -e "s/^(X?)rep$/$1REP/I" | shed -k -e "s/[<>]//g" | shed -e "s/^custos:/Xcustos:/I" | shed -k -e "s/:TUP:/:tup:/L" | shed -k -e "s/r[a-gA-G]+/r/D" | rid -li
!!!ENC: Andrzej Gręziak
!!!END: 2022-06-29
!!!ENC: Natalia Wrzos
!!!END: 2022-07-16
!!!EED-modern: Antoni Szymański
!!!END-modern: 2022-08-10
